X:4072
T:Derrire chez nous
R:Pastourelle
A:Normandie
O:France
M:2/4
L:1/8
Q:1/4=104
K:C
GA/2B/2 cc|cc cB/2c/2|de dc|c2d ","z|GA/2B/2 cc|cc cB/2c/2|de dc||!
M:3/4
L:1/8
c2 d  ","z dd/2d/2||
M:2/4
L:1/8
de  ce| de  ce| de/2d/2 ce|d2",^"z G/2G/2|!
cc  BA|dd GA/2B/2|cc BA|d2 cA/2B/2|cc BA| dd GA/2B/2|cc BA |d2 "^" c2||
